X:1
Q:1/4=90
L:1/8
M:4/4
K:C
V:1
%%Music/Instruments/Square
-F2 --- --- ---|-Z- --- --- ---|-Z- --- --- ---|-D3 -Z- --- ---|
-C3 --- --- ---|-Z- --- -C3 ---|-Z- --- --- ---|-C2 --- --- ---|
-F2 --- --- ---|-Z- --- --- ---|-Z- --- --- ---|-D3 -Z- --- ---|
-C3 --- --- ---|-Z- --- -C3 ---|-Z- --- --- ---|-C2 --- --- ---|
-F2 --- --- ---|-Z- --- --- ---|-Z- --- --- ---|-D3 -Z- --- ---|
-C3 --- --- ---|-Z- --- -C3 ---|-Z- --- --- ---|-C2 --- --- ---|
-F2 --- --- ---|-Z- --- --- ---|-Z- --- --- ---|-D3 -Z- --- ---|
-C3 --- --- ---|-Z- --- -C3 ---|-Z- --- --- ---|-C2 --- --- ---|
-F2 --- --- ---|-Z- --- --- ---|-Z- --- --- ---|-D3 -Z- --- ---|
-C3 --- --- ---|-Z- --- -C3 ---|-Z- --- --- ---|-C2 --- --- ---|
-F2 --- --- ---|-Z- --- --- ---|-Z- --- --- ---|-D3 -Z- --- ---|
-C3 --- --- ---|-Z- --- -C3 ---|-Z- --- --- ---|-C2 --- --- ---|
-F2 --- --- ---|-Z- --- --- ---|-Z- --- --- ---|-D3 -Z- --- ---|
-C3 --- --- ---|-Z- --- -C3 ---|-Z- --- --- ---|-C2 --- --- ---|
-F2 --- --- ---|-Z- --- --- ---|-Z- --- --- ---|-D3 -Z- --- ---|
-C3 --- --- ---|-Z- --- -C3 ---|-Z- --- --- ---|-C2 --- --- ---|
-F2 --- --- ---|-Z- --- --- ---|-Z- --- --- ---|-D3 -Z- --- ---|
-C3 --- --- ---|-Z- --- -C3 ---|-Z- --- --- ---|-C2 --- --- ---|
-F2 --- --- ---|-Z- --- --- ---|-Z- --- --- ---|-D3 -Z- --- ---|
-C3 --- --- ---|-Z- --- -C3 ---|-Z- --- --- ---|-C2 --- --- ---|
-F2 --- --- ---|-Z- --- --- ---|-Z- --- --- ---|-D3 -Z- --- ---|
-C3 --- --- ---|-Z- --- -C3 ---|-Z- --- --- ---|-C2 --- --- ---|
-F2 --- --- ---|-Z- --- --- ---|-Z- --- --- ---|-D3 -Z- --- ---|
-C3 --- --- ---|-Z- --- -C3 ---|-Z- --- --- ---|-C2 --- --- ---|
-F2 --- --- ---|-Z- --- --- ---|-Z- --- --- ---|-D3 -Z- --- ---|
-C3 --- --- ---|-Z- --- -C3 ---|-Z- --- --- ---|-C2 --- --- ---|
-F2 --- --- ---|-Z- --- --- ---|-Z- --- --- ---|-D3 -Z- --- ---|
-C3 --- --- ---|-Z- --- -C3 ---|-Z- --- --- ---|-C2 --- --- ---|
-F2 --- --- ---|-Z- --- --- ---|-Z- --- --- ---|-D3 -Z- --- ---|
-C3 --- --- ---|-Z- --- -C3 ---|-Z- --- --- ---|-C2 --- --- ---|
-F2 --- --- ---|-Z- --- --- ---|-Z- --- --- ---|-D3 -Z- --- ---|
-C3 --- --- ---|-Z- --- -C3 ---|-Z- --- --- ---|-C2 --- --- ---|
-F2 --- --- ---|-Z- --- --- ---|-Z- --- --- ---|-D3 -Z- --- ---|
-C3 --- --- ---|-Z- --- -C3 ---|-Z- --- --- ---|-C2 --- --- ---|
-F2 --- --- ---|-Z- --- --- ---|-Z- --- --- ---|-D3 -Z- --- ---|
-C3 --- --- ---|-Z- --- -C3 ---|-Z- --- --- ---|-C2 --- --- ---|
-Z- --- --- ---|-Z- --- --- ---|-Z- --- --- ---|-Z- --- --- ---|
-Z- --- --- ---|-Z- --- --- ---|-Z- --- --- ---|-Z- --- --- ---|
-Z- --- --- ---|-Z- --- --- ---|-Z- --- --- ---|-Z- --- --- ---|
-Z- --- --- ---|-Z- --- --- ---|-Z- --- --- ---|-Z- --- --- ---|
V:2
%%Music/Instruments/Nylon Guitar
-Z- --- --- ---|-Z- --- --- ---|-E4 -Z- --- ---|-Z- --- --- ---|
-Z- --- --- ---|-Z- --- --- ---|-E4 -Z- --- ---|-Z- --- --- ---|
-Z- --- --- ---|-Z- --- --- ---|-E4 -Z- --- ---|-Z- --- --- ---|
-Z- --- --- ---|-Z- --- --- ---|-E4 -Z- --- ---|-Z- --- --- ---|
-Z- --- --- ---|-Z- --- --- ---|-E4 -Z- --- ---|-Z- --- --- ---|
-Z- --- --- ---|-Z- --- --- ---|-E4 -Z- --- ---|-Z- --- --- ---|
-Z- --- --- ---|-Z- --- --- ---|-E4 -Z- --- ---|-Z- --- --- ---|
-Z- --- --- ---|-Z- --- --- ---|-E4 -Z- --- ---|-Z- --- --- ---|
-Z- --- --- ---|-Z- --- --- ---|-E4 -Z- --- ---|-Z- --- --- ---|
-Z- --- --- ---|-Z- --- --- ---|-E4 -Z- --- ---|-Z- --- --- ---|
-Z- --- --- ---|-Z- --- --- ---|-E4 -Z- --- ---|-Z- --- --- ---|
-Z- --- --- ---|-Z- --- --- ---|-E4 -Z- --- ---|-Z- --- --- ---|
-Z- --- --- ---|-Z- --- --- ---|-E4 -Z- --- ---|-Z- --- --- ---|
-Z- --- --- ---|-Z- --- --- ---|-E4 -Z- --- ---|-Z- --- --- ---|
-Z- --- --- ---|-Z- --- --- ---|-E4 -Z- --- ---|-Z- --- --- ---|
-Z- --- --- ---|-Z- --- --- ---|-E4 -Z- --- ---|-Z- --- --- ---|
-Z- --- --- ---|-Z- --- --- ---|-E4 -Z- --- ---|-Z- --- --- ---|
-Z- --- --- ---|-Z- --- --- ---|-E4 -Z- --- ---|-Z- --- --- ---|
-Z- --- --- ---|-Z- --- --- ---|-E4 -Z- --- ---|-Z- --- --- ---|
-Z- --- --- ---|-Z- --- --- ---|-E4 -Z- --- ---|-Z- --- --- ---|
-Z- --- --- ---|-Z- --- --- ---|-E4 -Z- --- ---|-Z- --- --- ---|
-Z- --- --- ---|-Z- --- --- ---|-E4 -Z- --- ---|-Z- --- --- ---|
-Z- --- --- ---|-Z- --- --- ---|-E4 -Z- --- ---|-Z- --- --- ---|
-Z- --- --- ---|-Z- --- --- ---|-E4 -Z- --- ---|-Z- --- --- ---|
-Z- --- --- ---|-Z- --- --- ---|-E4 -Z- --- ---|-Z- --- --- ---|
-Z- --- --- ---|-Z- --- --- ---|-E4 -Z- --- ---|-Z- --- --- ---|
-Z- --- --- ---|-Z- --- --- ---|-E4 -Z- --- ---|-Z- --- --- ---|
-Z- --- --- ---|-Z- --- --- ---|-E4 -Z- --- ---|-Z- --- --- ---|
-Z- --- --- ---|-Z- --- --- ---|-E4 -Z- --- ---|-Z- --- --- ---|
-Z- --- --- ---|-Z- --- --- ---|-E4 -Z- --- ---|-Z- --- --- ---|
-Z- --- --- ---|-Z- --- --- ---|-E4 -Z- --- ---|-Z- --- --- ---|
-Z- --- --- ---|-Z- --- --- ---|-E4 -Z- --- ---|-Z- --- --- ---|
-Z- --- --- ---|-Z- --- --- ---|-E4 -Z- --- ---|-Z- --- --- ---|
-Z- --- --- ---|-Z- --- --- ---|-E4 -Z- --- ---|-Z- --- --- ---|
-Z- --- --- ---|-Z- --- --- ---|-E4 -Z- --- ---|-Z- --- --- ---|
-Z- --- --- ---|-Z- --- --- ---|-E4 -Z- --- ---|-Z- --- --- ---|
-Z- --- --- ---|-Z- --- --- ---|-Z- --- --- ---|-Z- --- --- ---|
-Z- --- --- ---|-Z- --- --- ---|-Z- --- --- ---|-Z- --- --- ---|
-Z- --- --- ---|-Z- --- --- ---|-Z- --- --- ---|-Z- --- --- ---|
-Z- --- --- ---|-Z- --- --- ---|-Z- --- --- ---|-Z- --- --- ---|
V:3
%%Music/Instruments/Marimba
-Z- --- --- ---|-Z- --- --- ---|-Z- --- --- ---|-Z- --- --- ---|
-Z- --- --- ---|-Z- --- --- ---|-Z- --- --- ---|-Z- --- --- ---|
-Z- --- --- ---|-Z- --- --- ---|-Z- --- --- ---|-Z- --- --- ---|
-Z- --- --- ---|-Z- --- --- ---|-Z- --- --- ---|-Z- --- --- ---|
-Z- --- --- ---|-A4 --- --- ---|^A4 --- --- ---|-C5 --- --- ---|
-Z- --- --- ---|-Z- --- --- ---|-E5 --- --- ---|-D5 --- --- ---|
-Z- --- --- ---|-Z- --- --- ---|^A4 --- --- ---|-C5 --- --- ---|
-Z- --- --- ---|-Z- --- --- ---|-Z- --- --- ---|-Z- --- --- ---|
-Z- --- --- ---|-Z- --- --- ---|-Z- --- --- ---|-Z- --- --- ---|
-Z- --- --- ---|-Z- --- --- ---|-Z- --- --- ---|-Z- --- --- ---|
-Z- --- --- ---|-Z- --- --- ---|-Z- --- --- ---|-Z- --- --- ---|
-Z- --- --- ---|-Z- --- --- ---|-Z- --- --- ---|-Z- --- --- ---|
-Z- --- --- ---|-G4 --- --- ---|-A4 --- --- ---|^A4 --- --- ---|
-Z- --- --- ---|-Z- --- --- ---|-D5 --- --- ---|-C5 --- --- ---|
-Z- --- --- ---|-Z- --- --- ---|-A4 --- --- ---|^A4 --- --- ---|
-Z- --- --- ---|-Z- --- --- ---|-Z- --- --- ---|-Z- --- --- ---|
-Z- --- --- ---|-Z- --- --- ---|-Z- --- --- ---|-Z- --- --- ---|
-Z- --- --- ---|-Z- --- --- ---|-Z- --- --- ---|-Z- --- --- ---|
-Z- --- --- ---|-Z- --- --- ---|-Z- --- --- ---|-Z- --- --- ---|
-Z- --- --- ---|-Z- --- --- ---|-Z- --- --- ---|-Z- --- --- ---|
-Z- --- --- ---|-A4 --- --- ---|^A4 --- --- ---|-C5 --- --- ---|
-Z- --- --- ---|-Z- --- --- ---|-E5 --- --- ---|-D5 --- --- ---|
-Z- --- --- ---|-Z- --- --- ---|^A4 --- --- ---|-C5 --- --- ---|
-Z- --- --- ---|-Z- --- --- ---|-Z- --- --- ---|-Z- --- --- ---|
-Z- --- --- ---|-Z- --- --- ---|-Z- --- --- ---|-Z- --- --- ---|
-Z- --- --- ---|-Z- --- --- ---|-Z- --- --- ---|-Z- --- --- ---|
-Z- --- --- ---|-Z- --- --- ---|-Z- --- --- ---|-Z- --- --- ---|
-Z- --- --- ---|-Z- --- --- ---|-Z- --- --- ---|-Z- --- --- ---|
-Z- --- --- ---|-G4 --- --- ---|-A4 --- --- ---|^A4 --- --- ---|
-Z- --- --- ---|-Z- --- --- ---|-D5 --- --- ---|-C5 --- --- ---|
-Z- --- --- ---|-Z- --- --- ---|-A4 --- --- ---|^A4 --- --- ---|
-Z- --- --- ---|-Z- --- --- ---|-Z- --- --- ---|-Z- --- --- ---|
-Z- --- --- ---|-Z- --- --- ---|-Z- --- --- ---|-Z- --- --- ---|
-Z- --- --- ---|-Z- --- --- ---|-Z- --- --- ---|-Z- --- --- ---|
-Z- --- --- ---|-Z- --- --- ---|-Z- --- --- ---|-Z- --- --- ---|
-Z- --- --- ---|-Z- --- --- ---|-Z- --- --- ---|-Z- --- --- ---|
-Z- --- --- ---|-Z- --- --- ---|-Z- --- --- ---|-Z- --- --- ---|
-Z- --- --- ---|-Z- --- --- ---|-Z- --- --- ---|-Z- --- --- ---|
-Z- --- --- ---|-Z- --- --- ---|-Z- --- --- ---|-Z- --- --- ---|
-Z- --- --- ---|-Z- --- --- ---|-Z- --- --- ---|-Z- --- --- ---|
V:4
%%Music/Instruments/Clarinet
-Z- --- --- ---|-Z- --- --- ---|-Z- --- --- ---|-Z- --- --- ---|
-Z- --- --- ---|-Z- --- --- ---|-Z- --- --- ---|-Z- --- --- ---|
-Z- --- --- ---|-Z- --- --- ---|-Z- --- --- ---|-Z- --- --- ---|
-Z- --- --- ---|-Z- --- --- ---|-Z- --- --- ---|-Z- --- --- ---|
-Z- --- --- ---|-Z- --- --- ---|-Z- --- --- ---|-Z- --- --- ---|
-Z- --- --- ---|-Z- --- --- ---|-Z- --- --- ---|-Z- --- --- ---|
-Z- --- --- ---|-Z- --- --- ---|-Z- --- --- ---|-Z- --- --- ---|
-Z- --- --- ---|-Z- --- --- ---|-Z- --- --- ---|-Z- --- --- ---|
-Z- --- --- ---|-Z- --- --- ---|-Z- --- --- ---|-Z- --- --- ---|
-C5 -Z- --- ---|-A4 -Z- --- ---|^A4 -Z- --- ---|-C5 --- --- ---|
-Z- --- --- ---|-Z- --- --- ---|-Z- --- --- ---|-Z- --- --- ---|
-Z- --- --- ---|-C5 -Z- --- ---|-C4 -Z- --- ---|-C4 -Z- --- ---|
-Z- --- --- ---|-Z- --- --- ---|-Z- --- --- ---|-Z- --- --- ---|
-Z- --- --- ---|-Z- --- --- ---|-Z- --- --- ---|-Z- --- --- ---|
-Z- --- --- ---|-Z- --- --- ---|-Z- --- --- ---|-Z- --- --- ---|
-Z- --- --- ---|-Z- --- --- ---|-Z- --- --- ---|-Z- --- --- ---|
-Z- --- --- ---|-Z- --- --- ---|-Z- --- --- ---|-Z- --- --- ---|
^A4 -Z- --- ---|-G4 -Z- --- ---|-A4 -Z- --- ---|^A4 --- --- ---|
-Z- --- --- ---|-Z- --- --- ---|-Z- --- --- ---|-Z- --- --- ---|
-Z- --- --- ---|-C5 -Z- --- ---|-C4 -Z- --- ---|-C4 -Z- --- ---|
-Z- --- --- ---|-Z- --- --- ---|-Z- --- --- ---|-Z- --- --- ---|
-Z- --- --- ---|-Z- --- --- ---|-Z- --- --- ---|-Z- --- --- ---|
-Z- --- --- ---|-Z- --- --- ---|-Z- --- --- ---|-Z- --- --- ---|
-Z- --- --- ---|-Z- --- --- ---|-Z- --- --- ---|-Z- --- --- ---|
-Z- --- --- ---|-Z- --- --- ---|-Z- --- --- ---|-Z- --- --- ---|
-C5 -Z- --- ---|-A4 -Z- --- ---|^A4 -Z- --- ---|-C5 --- --- ---|
-Z- --- --- ---|-Z- --- --- ---|-Z- --- --- ---|-Z- --- --- ---|
-Z- --- --- ---|-C5 -Z- --- ---|-C4 -Z- --- ---|-C4 -Z- --- ---|
-Z- --- --- ---|-Z- --- --- ---|-Z- --- --- ---|-Z- --- --- ---|
-Z- --- --- ---|-Z- --- --- ---|-Z- --- --- ---|-Z- --- --- ---|
-Z- --- --- ---|-Z- --- --- ---|-Z- --- --- ---|-Z- --- --- ---|
-Z- --- --- ---|-Z- --- --- ---|-Z- --- --- ---|-Z- --- --- ---|
-Z- --- --- ---|-Z- --- --- ---|-Z- --- --- ---|-Z- --- --- ---|
^A4 -Z- --- ---|-G4 -Z- --- ---|-A4 -Z- --- ---|^A4 --- --- ---|
-Z- --- --- ---|-Z- --- --- ---|-Z- --- --- ---|-Z- --- --- ---|
-Z- --- --- ---|-C5 -Z- --- ---|-C4 -Z- --- ---|-C4 -Z- --- ---|
-Z- --- --- ---|-Z- --- --- ---|-Z- --- --- ---|-Z- --- --- ---|
-Z- --- --- ---|-Z- --- --- ---|-Z- --- --- ---|-Z- --- --- ---|
-Z- --- --- ---|-Z- --- --- ---|-Z- --- --- ---|-Z- --- --- ---|
-Z- --- --- ---|-Z- --- --- ---|-Z- --- --- ---|-Z- --- --- ---|
V:5
%%Music/Instruments/Percussion
-B1 --- -Z- ---|^A4 --- -Z- ---|-E2 --- -Z- ---|^A4 --- -Z- ---|
-B1 --- -Z- ---|^A4 --- -B1 ---|-E2 --- -Z- ---|^A4 --- -Z- ---|
-B1 --- -Z- ---|^A4 --- -Z- ---|-E2 --- -Z- ---|^A4 --- -Z- ---|
-B1 --- -Z- ---|^A4 --- -B1 ---|-E2 --- -Z- ---|^A4 --- -Z- ---|
-B1 --- -Z- ---|^A4 --- -Z- ---|-E2 --- -Z- ---|^A4 --- -Z- ---|
-B1 --- -Z- ---|^A4 --- -B1 ---|-E2 --- -Z- ---|^A4 --- -Z- ---|
-B1 --- -Z- ---|^A4 --- -Z- ---|-E2 --- -Z- ---|^A4 --- -Z- ---|
-B1 --- -Z- ---|^A4 --- -B1 ---|-E2 --- -Z- ---|^A4 --- -Z- ---|
-B1 --- -Z- ---|^A4 --- -Z- ---|-E2 --- -Z- ---|^A4 --- -Z- ---|
-B1 --- -Z- ---|^A4 --- -B1 ---|-E2 --- -Z- ---|^A4 --- -Z- ---|
-B1 --- -Z- ---|^A4 --- -Z- ---|-E2 --- -Z- ---|^A4 --- -Z- ---|
-B1 --- -Z- ---|^A4 --- -B1 ---|-E2 --- -Z- ---|^A4 --- -Z- ---|
-B1 --- -Z- ---|^A4 --- -Z- ---|-E2 --- -Z- ---|^A4 --- -Z- ---|
-B1 --- -Z- ---|^A4 --- -B1 ---|-E2 --- -Z- ---|^A4 --- -Z- ---|
-B1 --- -Z- ---|^A4 --- -Z- ---|-E2 --- -Z- ---|^A4 --- -Z- ---|
-B1 --- -Z- ---|^A4 --- -B1 ---|-E2 --- -Z- ---|^A4 --- -Z- ---|
-B1 --- -Z- ---|^A4 --- -Z- ---|-E2 --- -Z- ---|^A4 --- -Z- ---|
-B1 --- -Z- ---|^A4 --- -B1 ---|-E2 --- -Z- ---|^A4 --- -Z- ---|
-B1 --- -Z- ---|^A4 --- -Z- ---|-E2 --- -Z- ---|^A4 --- -Z- ---|
-B1 --- -Z- ---|^A4 --- -B1 ---|-E2 --- -Z- ---|^A4 --- -Z- ---|
-B1 --- -Z- ---|^A4 --- -Z- ---|-E2 --- -Z- ---|^A4 --- -Z- ---|
-B1 --- -Z- ---|^A4 --- -B1 ---|-E2 --- -Z- ---|^A4 --- -Z- ---|
-B1 --- -Z- ---|^A4 --- -Z- ---|-E2 --- -Z- ---|^A4 --- -Z- ---|
-B1 --- -Z- ---|^A4 --- -B1 ---|-E2 --- -Z- ---|^A4 --- -Z- ---|
-B1 --- -Z- ---|^A4 --- -Z- ---|-E2 --- -Z- ---|^A4 --- -Z- ---|
-B1 --- -Z- ---|^A4 --- -B1 ---|-E2 --- -Z- ---|^A4 --- -Z- ---|
-B1 --- -Z- ---|^A4 --- -Z- ---|-E2 --- -Z- ---|^A4 --- -Z- ---|
-B1 --- -Z- ---|^A4 --- -B1 ---|-E2 --- -Z- ---|^A4 --- -Z- ---|
-B1 --- -Z- ---|^A4 --- -Z- ---|-E2 --- -Z- ---|^A4 --- -Z- ---|
-B1 --- -Z- ---|^A4 --- -B1 ---|-E2 --- -Z- ---|^A4 --- -Z- ---|
-B1 --- -Z- ---|^A4 --- -Z- ---|-E2 --- -Z- ---|^A4 --- -Z- ---|
-B1 --- -Z- ---|^A4 --- -B1 ---|-E2 --- -Z- ---|^A4 --- -Z- ---|
-B1 --- -Z- ---|^A4 --- -Z- ---|-E2 --- -Z- ---|^A4 --- -Z- ---|
-B1 --- -Z- ---|^A4 --- -B1 ---|-E2 --- -Z- ---|^A4 --- -Z- ---|
-B1 --- -Z- ---|^A4 --- -Z- ---|-E2 --- -Z- ---|^A4 --- -Z- ---|
-B1 --- -Z- ---|^A4 --- -B1 ---|-E2 --- -Z- ---|^A4 --- -Z- ---|
-B1 --- -Z- ---|^A4 --- -Z- ---|-E2 --- -Z- ---|^A4 --- -Z- ---|
-B1 --- -Z- ---|^A4 --- -B1 ---|-E2 --- -Z- ---|^A4 --- -Z- ---|
-B1 --- -Z- ---|^A4 --- -Z- ---|-E2 --- -Z- ---|^A4 --- -Z- ---|
-B1 --- -Z- ---|^A4 --- -B1 ---|-E2 --- -Z- ---|^A4 --- -Z- ---|